X: 31662
T: Parnell's March
R: jig
M: 6/8
K: Gmajor
d2 c||BGD B2 c|d3 d2 c|BGD BGD|ded d2c|
B3 GBd|edc BAG|Add d^cd|Add d2 c|
BGD B2 c|d3 BAG|c2 B c2 e|g3 gfe|
dBG DGB|c2 A F2 G|A3 ABA|1 G3 d2 c:|2 G2 g f2=f||
e2 cc2 B|c2gf2 e|d6|B3- B2 c|
dcd d^cd|edc BAG|cdd d^cd|cdd d2 c|
BAG B2 c|d3 BAG|c2 B c2 e|g3 gfe|
dBG DGB|c2 A F2 G|A3 ABA|1 G2 g f2 =f:|2 G3 d2 c||

